X:70
T:Gravy Waltz
C:Ray Brown
N:TablEdited by Kim Davis and Mike Stangeland for John Baxter
L:1/8
Q:1/4=130
M:3/4
K:C
z6 | "C"EG AG AG | "F"F2 A2 c2 | "C/G"e3"E7/G#"c d2 | "Am"c6 | "F#m7b5"z2 ec "Fm6"dc | 
(3"Em7b5"_Bc=B "A7"GA GF | "D7"E3C "G7"D2 | "C"C6 | EG AG AG | "F"F2 A2 c2 | "C/G"e3c "E7/G#"d2 | 
"Am"c6 | "F#m7b5"z2 ec "Fm6"dc | (3"Em7b5"_Bc=B "A7"GA GF | "D7"E3C "G7"D2 | "C"C4 C^D | 
"F7"^F/=F/^D/C/ E2 F2 | "C"EG cB c2 | "F7"^F/=F/^D/C/ E2 F2 | "C7"E_B, z2 C^D | 
"F7"^F/=F/^D/C/ E2 F2 | "C"EG cB "Am"c2 | "D"^F2 "C/E"G2 "D/F#"A2 | "G"B2 "F/A"c2 "G7/B"d2 | 
"C"EG AG AG | "F"F2 A2 c2 | "C"e3c "E7"d2 | "Am"c6 | "F#m7b5"z2 ec "Fm"dc | "Em7b5"(3_Bc=B "A7"GA GF | 
"D7"E2 C2 "G7"D2 | "C"C6 | z6 | 


